logos/redwoodjs.svg

<?xml version="1.0" encoding="UTF-8"?>
<svg width="256px" height="277px" viewBox="0 0 256 277" version="1.1" xmlns="http://www.w3.org/2000/svg" xmlns:xlink="http://www.w3.org/1999/xlink" preserveAspectRatio="xMidYMid">
    <title>Redwood</title>
    <g>
        <path d="M112.389931,3.92764488 C101.983252,9.16447338 80.0455822,19.3600825 68.1611538,27.4933992 C56.2764642,35.6268988 57.7542137,43.2039892 52.5508742,48.4407655 C47.3475347,53.6778029 31.7372551,66.7698742 21.330315,74.6251692 C10.9235838,82.4804641 13.5251752,103.42783 10.9235838,111.283125 C8.32188798,119.13842 3.11847015,137.467268 0.5167743,145.322563 C-2.08492155,153.177858 5.720166,163.651672 10.9235838,174.125224 C16.1269755,184.599038 29.1354548,213.401699 34.3387943,223.875251 C39.5423949,234.349065 55.1524133,229.112289 68.1611538,239.585841 C81.1696331,250.059655 99.3814518,263.152771 112.389931,271.007805 C125.39841,278.862839 130.602011,278.862839 143.61049,271.007805 C156.618969,263.152771 174.830788,250.059655 187.839267,239.585841 C200.848008,229.112289 216.458026,234.349065 221.661627,223.875251 C226.864966,213.401699 239.873446,184.599038 245.076785,174.125224 C250.279602,163.651672 258.085003,153.177858 255.483203,145.322563 C252.881403,137.467268 247.678586,119.13842 245.076785,111.283125 C242.475246,103.42783 245.076785,82.4804641 234.670106,74.6251692 C224.263166,66.7698742 212.18308,56.7680939 203.449547,48.4407655 C194.716014,40.1136982 198.246208,35.3486942 187.839267,27.4933992 C177.432589,19.6381826 154.017169,9.16447338 143.61049,3.92764488 C133.20355,-1.30921496 122.796871,-1.30921496 112.389931,3.92764488 Z" fill="#FFFFFF"></path>
        <path d="M75.643942,49.3187425 L124.337576,82.5567418 C125.436549,83.2886941 126.72047,83.6894131 128.037827,83.7118785 C129.357274,83.7022132 130.644329,83.3004492 131.737817,82.5567418 L180.468545,49.2069382 C182.361903,47.851442 183.406019,45.5913239 183.21637,43.2596301 C183.026459,40.9276751 181.630734,38.8692227 179.543547,37.8420862 L130.849913,13.7334281 C129.002792,12.8371915 126.850821,12.8371915 125.003699,13.7334281 L76.4581801,37.8420862 C74.3331153,38.8747084 72.9191047,40.9731283 72.7508759,43.3429609 C72.5829083,45.7130547 73.6863224,47.9925035 75.643942,49.3187425 Z M144.577284,92.9900657 C144.581202,95.1942817 145.660061,97.2558689 147.463297,98.5047853 L186.499706,125.184733 C188.998584,126.907511 192.342263,126.692262 194.602903,124.663066 L227.349016,95.3747881 C228.80848,94.0710145 229.6188,92.1828806 229.561591,90.2189916 C229.504644,88.2551025 228.585655,86.4179076 227.053048,85.202428 L195.787036,60.1992834 C193.514379,58.3939579 190.343892,58.2735332 187.942713,59.9012258 L147.463297,87.5871504 C145.691931,88.8136014 144.61699,90.8255559 144.577284,92.9900657 Z M47.4862452,129.283352 C49.0637826,130.700497 49.874886,132.79108 49.6693019,134.910137 C49.4642404,137.04121 48.2333485,138.935352 46.3760392,139.977639 L23.065371,153.951084 C20.7023303,155.363527 17.7188803,155.159771 15.5666481,153.439083 C13.414677,151.718655 12.5409319,148.838389 13.3710525,146.20054 L21.992259,119.073637 C22.6685703,116.924278 24.3829896,115.268112 26.5433198,114.676698 C28.7023439,114.048453 31.0303805,114.599115 32.6857629,116.129893 L47.4862452,129.283352 Z M173.919374,132.115291 L131.774911,103.274491 C129.535168,101.767485 126.614412,101.767485 124.37467,103.274491 L82.2302063,132.115291 C80.5539259,133.275653 79.4920465,135.140015 79.3441932,137.183055 C79.2350012,139.240201 80.0502842,141.237789 81.5643439,142.623326 L123.671713,180.295357 C124.885887,181.378396 126.452714,181.975033 128.07466,181.97217 C129.696344,181.97217 131.261865,181.375522 132.477867,180.295357 L174.585237,142.623326 C176.103737,141.243535 176.908833,139.23785 176.768294,137.183055 C176.650742,135.140276 175.598267,133.268077 173.919374,132.115291 Z M61.5095833,124.663066 L28.8005644,95.3747881 C27.3288231,94.0378389 26.5166748,92.1160071 26.5804137,90.1210322 C26.6159403,88.1545309 27.526048,86.3081931 29.0594383,85.0906237 L60.3254507,59.9385809 C62.6140423,58.1382187 65.7907987,58.0180552 68.2068682,59.6405233 L108.64919,87.3261867 C110.526091,88.5570786 111.65824,90.6599393 111.65824,92.9156166 C111.65824,95.1712939 110.526091,97.2738934 108.64919,98.5047853 L69.6498747,125.184733 C67.1355847,126.899936 63.7874647,126.68547 61.5095833,124.663066 Z M229.458146,166.732036 L196.156931,146.796655 C193.683914,145.306367 190.535892,145.608082 188.386795,147.54193 L147.685338,183.872571 C145.968568,185.405962 145.162166,187.724855 145.554265,190.001692 C145.946102,192.27879 147.480276,194.189128 149.609521,195.05117 L206.07329,217.930294 C206.847822,218.251862 207.677734,218.416434 208.515482,218.414639 C211.136091,218.422965 213.514805,216.874423 214.583737,214.464884 L232.085286,175.264948 C233.509745,172.162902 232.375245,168.478325 229.458146,166.732036 Z M234.083395,119.073637 L242.704602,146.20054 L242.630675,146.20054 C243.268064,148.229474 242.905745,150.443355 241.655522,152.159081 C240.405038,153.874806 238.416594,154.88653 236.303285,154.882647 C235.117585,154.88653 233.953566,154.56444 232.936356,153.951084 L209.588333,139.977639 C207.769424,138.913409 206.581112,137.021357 206.406352,134.910137 C206.188229,132.789513 207.001422,130.693444 208.589409,129.283352 L223.389891,116.092538 C225.061992,114.594151 227.372527,114.047408 229.532073,114.639343 C231.691097,115.256357 233.399769,116.920882 234.083395,119.073637 Z M110.573112,189.983667 C110.971218,187.715974 110.172915,185.402827 108.464243,183.872571 L67.7627858,147.54193 C65.6136882,145.608082 62.4656666,145.306367 59.9926501,146.796655 L26.6914343,166.732036 C23.8080335,168.486161 22.6672642,172.12398 24.0274624,175.227854 L41.5658433,214.427529 C43.0190376,217.695976 46.7757134,219.225709 50.0762904,217.892939 L106.502966,195.013815 C108.632733,194.159609 110.172393,192.256847 110.573112,189.983667 Z M130.553946,201.162266 L175.843296,219.495293 C178.0577,220.443017 179.587694,222.525763 179.839515,224.935563 C180.126079,227.375404 179.042518,229.773449 177.027429,231.158203 L131.700984,262.645995 C130.61455,263.408772 129.325143,263.824119 128.000733,263.837181 C126.677629,263.816283 125.390051,263.400935 124.300743,262.645995 L79.0111314,231.158203 C76.988728,229.776845 75.8918445,227.381413 76.1619511,224.935563 C76.4644495,222.500425 78.0493012,220.420029 80.3062846,219.495293 L125.595635,201.162266 C127.188324,200.527228 128.961257,200.527228 130.553946,201.162266 Z" fill="#BF4722"></path>
    </g>
</svg>

<svg preserveAspectRatio="xMidYMid" viewBox="0 0 256 277" xmlns="http://www.w3.org/2000/svg">
  <path fill="#FFF" d="M112.39 3.928C101.983 9.164 80.046 19.36 68.16 27.493c-11.885 8.134-10.407 15.711-15.61 20.948-5.203 5.237-20.814 18.329-31.22 26.184-10.407 7.855-7.806 28.803-10.407 36.658-2.602 7.855-7.806 26.184-10.407 34.04-2.602 7.855 5.203 18.329 10.407 28.802 5.203 10.474 18.211 39.277 23.415 49.75 5.203 10.474 20.813 5.237 33.822 15.71 13.009 10.475 31.22 23.568 44.229 31.423 13.008 7.855 18.212 7.855 31.22 0 13.009-7.855 31.22-20.948 44.23-31.422 13.008-10.474 28.618-5.237 33.822-15.71 5.203-10.474 18.211-39.277 23.415-49.75 5.203-10.474 13.008-20.948 10.406-28.803-2.602-7.856-7.804-26.185-10.406-34.04-2.602-7.855 0-28.803-10.407-36.658s-22.487-17.857-31.22-26.184c-8.734-8.327-5.204-13.092-15.61-20.948-10.407-7.855-33.823-18.329-44.23-23.565-10.406-5.237-20.813-5.237-31.22 0Z"/>
  <path fill="#BF4722" d="m75.644 49.319 48.694 33.238a6.886 6.886 0 0 0 3.7 1.155 6.665 6.665 0 0 0 3.7-1.155l48.73-33.35a6.65 6.65 0 0 0 2.748-5.947 6.633 6.633 0 0 0-3.672-5.418L130.85 13.733a6.692 6.692 0 0 0-5.846 0l-48.546 24.11a6.633 6.633 0 0 0-3.707 5.5 6.649 6.649 0 0 0 2.893 5.976Zm68.933 43.671a6.721 6.721 0 0 0 2.886 5.515l39.037 26.68a6.55 6.55 0 0 0 8.103-.522l32.746-29.288a6.654 6.654 0 0 0 2.213-5.156 6.648 6.648 0 0 0-2.509-5.017L195.787 60.2a6.623 6.623 0 0 0-7.844-.298l-40.48 27.686a6.72 6.72 0 0 0-2.886 5.403Zm-97.09 36.293a6.696 6.696 0 0 1 2.182 5.627 6.524 6.524 0 0 1-3.293 5.068l-23.31 13.973a6.586 6.586 0 0 1-7.5-.512 6.698 6.698 0 0 1-2.195-7.238l8.621-27.127a6.607 6.607 0 0 1 4.551-4.397 6.406 6.406 0 0 1 6.143 1.453l14.8 13.153Zm126.432 2.832-42.144-28.84a6.622 6.622 0 0 0-7.4 0l-42.145 28.84a6.754 6.754 0 0 0-2.886 5.068 6.88 6.88 0 0 0 2.22 5.44l42.108 37.672a6.597 6.597 0 0 0 4.403 1.677 6.63 6.63 0 0 0 4.403-1.677l42.107-37.672a6.73 6.73 0 0 0 2.183-5.44 6.606 6.606 0 0 0-2.849-5.068Zm-112.41-7.452L28.802 95.375a6.804 6.804 0 0 1-2.22-5.254 6.574 6.574 0 0 1 2.478-5.03l31.266-25.152a6.696 6.696 0 0 1 7.882-.298l40.442 27.685a6.682 6.682 0 0 1 3.01 5.59 6.682 6.682 0 0 1-3.01 5.589l-39 26.68a6.624 6.624 0 0 1-8.14-.522Zm167.95 42.069-33.302-19.935a6.55 6.55 0 0 0-7.77.745l-40.702 36.33a6.696 6.696 0 0 0-2.13 6.13 6.66 6.66 0 0 0 4.055 5.05l56.463 22.878a6.333 6.333 0 0 0 2.442.485c2.621.008 5-1.54 6.069-3.95l17.501-39.2c1.425-3.102.29-6.787-2.627-8.533Zm4.624-47.658 8.622 27.127h-.074a6.71 6.71 0 0 1-.975 5.958 6.61 6.61 0 0 1-5.353 2.724 6.478 6.478 0 0 1-3.367-.932l-23.348-13.973a6.489 6.489 0 0 1-3.182-5.068 6.62 6.62 0 0 1 2.183-5.627l14.8-13.19a6.59 6.59 0 0 1 6.143-1.454 6.72 6.72 0 0 1 4.551 4.435Zm-123.51 70.91a6.66 6.66 0 0 0-2.109-6.111l-40.701-36.331a6.55 6.55 0 0 0-7.77-.745L26.69 166.732c-2.883 1.754-4.024 5.392-2.664 8.496l17.539 39.2c1.453 3.268 5.21 4.798 8.51 3.465l56.427-22.88a6.659 6.659 0 0 0 4.07-5.03Zm19.98 11.178 45.29 18.333a6.665 6.665 0 0 1 3.997 5.44 6.614 6.614 0 0 1-2.813 6.223l-45.326 31.488a6.551 6.551 0 0 1-3.7 1.191 6.682 6.682 0 0 1-3.7-1.191l-45.29-31.488a6.651 6.651 0 0 1-2.849-6.222 6.775 6.775 0 0 1 4.144-5.44l45.29-18.334a6.69 6.69 0 0 1 4.958 0Z"/>
</svg>
